X:26
T:MUSIC MAKARS/At the Fair 8 X 32 Reel  #1
M:2/4
L:1/8
S:1,2,3,4/  2,3,4 1
R:Reel
N:s All round Collection 1905  aka/Fiddler's Campanion
K:C
G | "C" ce/c/ ge/c/ |"C"  ce/c/ "G7" B/c/d/e/ |"C" ce/c/ gf/e/ |"Dm"  f/e/d/c/ "G7" B/c/d/e/ |!
 | "C" ce/c/ ge/c/ |"C"  ce/c/ "G7" B/c/d/e/ |"Am" ce/c/ "Em" gf/e/ |"Dm"  f/e/d/c/ "G" B/c/d/e/ |!
"Am" ce/c/ "Em" Be/B/ |"F" Ac/A/ "C" GA/G/ |"G7"  FG/F/ "C" E/G/c/e/ |"D7" d/A/B/c/ "G" e/d/B/G/ |!
 "Am" ce/c/ "Em" B/B/e/B/ |"F" Ac/A/ "C" GA/G/ |"Dm"  FG/F/ "C" E/G/c/e/ |1 "F-G" A/d/B/G/ "C" cG :|2 "F - G" A/d/B/G/ "C" cz ||
